X: 29895
T: O'Neill's Castle
R: waltz
M: 3/4
K: Bminor
FE|"Bm"F2B,2C2|"A"D2E2FG|"D/F#"A2"G"B2FD|"A"EF/E/D3D|
"D"D4DE|"D"F2D3E|F2d2"F#m"cd|"G"B3cBc/B/|"A"A2F3E|
"D"D4FF|"Bm"F2D3E|"D"F2d2"F#m"cd|"G"B3cBc/B/|"A"A2F3E|
"D"F4FF|"Bm"F2B,3C|"A"D2E2FG|"D/F#"A2"G"B2FD|"A"EF/E/D3D|"D"D6||

